X:0915
T:Moll in the Wad.
M:6/8
L:1/8
Q:3/8=120
I: :: :|
Z:Jack Campin * www.campin.me.uk * 2009
K:G
f|   ede  ccB|   A2B  c2d|   ede  c2e|dBG G2
f|   ede  ccB|   A2B  c2d|   e>fe gfe|dBG G2:|
f|{f}e>ce g2f|{f}e>ce g2f|{f}ece  gfe|dBG G2
f|   ece  g2f|   ece  gab|   cBA  gfe|dBG G2:|
<end>
<start>
